world_stage/static/flags/rect/tgo.svg

<svg height="666.66669" viewBox="0 0 1000 666.66669" width="1000" xmlns="http://www.w3.org/2000/svg"><g transform="matrix(1.3333333 0 0 -1.3333333 0 666.66667)"><path d="m0 0h750v500h-750z" fill="#006a4e"/><path d="m0 300h750v100h-750z" fill="#ffce00"/><path d="m0 100h750v100h-750z" fill="#ffce00"/><path d="m0 200h300v300.001h-300z" fill="#d21034"/></g><g fill="#fff"><path d="m0 0-29.356-90.351 47.552-15.45" transform="matrix(1.3333333 0 0 -1.3333333 200 73.333333)"/><path d="m0 0 29.356-90.351-47.552-15.45" transform="matrix(1.3333333 0 0 -1.3333333 200 73.333333)"/><path d="m0 0h-95v-50" transform="matrix(1.3333333 0 0 -1.3333333 320.46747 160.85813)"/><path d="m0 0-76.857-55.839-29.389 40.45" transform="matrix(1.3333333 0 0 -1.3333333 320.46747 160.85813)"/><path d="m0 0-29.356 90.35-47.553-15.451" transform="matrix(1.3333333 0 0 -1.3333333 274.45253 302.4752)"/><path d="m0 0-76.856 55.839 29.389 40.451" transform="matrix(1.3333333 0 0 -1.3333333 274.45253 302.4752)"/><path d="m0 0 76.856 55.839-29.389 40.451" transform="matrix(1.3333333 0 0 -1.3333333 125.54747 302.4752)"/><path d="m0 0 29.356 90.35 47.553-15.451" transform="matrix(1.3333333 0 0 -1.3333333 125.54747 302.4752)"/><g transform="matrix(1.3333333 0 0 -1.3333333 79.532533 160.85813)"><path d="m0 0 76.857-55.839 29.389 40.45"/><path d="m0 0h95v-50"/></g></g></svg>

<?xml version="1.0" encoding="UTF-8" standalone="no"?>
<!-- Created with Inkscape (http://www.inkscape.org/) -->

<svg
   version="1.1"
   id="svg1"
   width="1000"
   height="666.66669"
   viewBox="0 0 1000 666.66669"
   sodipodi:docname="tg.ai"
   xmlns:inkscape="http://www.inkscape.org/namespaces/inkscape"
   xmlns:sodipodi="http://sodipodi.sourceforge.net/DTD/sodipodi-0.dtd"
   xmlns="http://www.w3.org/2000/svg"
   xmlns:svg="http://www.w3.org/2000/svg">
  <defs
     id="defs1" />
  <sodipodi:namedview
     id="namedview1"
     pagecolor="#ffffff"
     bordercolor="#000000"
     borderopacity="0.25"
     inkscape:showpageshadow="2"
     inkscape:pageopacity="0.0"
     inkscape:pagecheckerboard="0"
     inkscape:deskcolor="#d1d1d1">
    <inkscape:page
       x="0"
       y="0"
       inkscape:label="1"
       id="page1"
       width="1000"
       height="666.66669"
       margin="0"
       bleed="0" />
  </sodipodi:namedview>
  <g
     id="layer-MC0"
     inkscape:groupmode="layer"
     inkscape:label="Layer 1">
    <path
       id="path1"
       d="M 0,0 H 750 V 500 H 0 Z"
       style="fill:#006a4e;fill-opacity:1;fill-rule:nonzero;stroke:none"
       transform="matrix(1.3333333,0,0,-1.3333333,0,666.66667)" />
    <path
       id="path2"
       d="M 0,300 H 750 V 400 H 0 Z"
       style="fill:#ffce00;fill-opacity:1;fill-rule:nonzero;stroke:none"
       transform="matrix(1.3333333,0,0,-1.3333333,0,666.66667)" />
    <path
       id="path3"
       d="M 0,100 H 750 V 200 H 0 Z"
       style="fill:#ffce00;fill-opacity:1;fill-rule:nonzero;stroke:none"
       transform="matrix(1.3333333,0,0,-1.3333333,0,666.66667)" />
    <path
       id="path4"
       d="M 0,200 H 300 V 500.001 H 0 Z"
       style="fill:#d21034;fill-opacity:1;fill-rule:nonzero;stroke:none"
       transform="matrix(1.3333333,0,0,-1.3333333,0,666.66667)" />
    <path
       id="path5"
       d="m 0,0 -29.356,-90.351 47.552,-15.45"
       style="fill:#ffffff;fill-opacity:1;fill-rule:nonzero;stroke:none"
       transform="matrix(1.3333333,0,0,-1.3333333,200,73.333333)" />
    <path
       id="path6"
       d="m 0,0 29.356,-90.351 -47.552,-15.45"
       style="fill:#ffffff;fill-opacity:1;fill-rule:nonzero;stroke:none"
       transform="matrix(1.3333333,0,0,-1.3333333,200,73.333333)" />
    <path
       id="path7"
       d="M 0,0 H -95 V -50"
       style="fill:#ffffff;fill-opacity:1;fill-rule:nonzero;stroke:none"
       transform="matrix(1.3333333,0,0,-1.3333333,320.46747,160.85813)" />
    <path
       id="path8"
       d="m 0,0 -76.857,-55.839 -29.389,40.45"
       style="fill:#ffffff;fill-opacity:1;fill-rule:nonzero;stroke:none"
       transform="matrix(1.3333333,0,0,-1.3333333,320.46747,160.85813)" />
    <path
       id="path9"
       d="M 0,0 -29.356,90.35 -76.909,74.899"
       style="fill:#ffffff;fill-opacity:1;fill-rule:nonzero;stroke:none"
       transform="matrix(1.3333333,0,0,-1.3333333,274.45253,302.4752)" />
    <path
       id="path10"
       d="M 0,0 -76.856,55.839 -47.467,96.29"
       style="fill:#ffffff;fill-opacity:1;fill-rule:nonzero;stroke:none"
       transform="matrix(1.3333333,0,0,-1.3333333,274.45253,302.4752)" />
    <path
       id="path11"
       d="M 0,0 76.856,55.839 47.467,96.29"
       style="fill:#ffffff;fill-opacity:1;fill-rule:nonzero;stroke:none"
       transform="matrix(1.3333333,0,0,-1.3333333,125.54747,302.4752)" />
    <path
       id="path12"
       d="M 0,0 29.356,90.35 76.909,74.899"
       style="fill:#ffffff;fill-opacity:1;fill-rule:nonzero;stroke:none"
       transform="matrix(1.3333333,0,0,-1.3333333,125.54747,302.4752)" />
    <path
       id="path13"
       d="m 0,0 76.857,-55.839 29.389,40.45"
       style="fill:#ffffff;fill-opacity:1;fill-rule:nonzero;stroke:none"
       transform="matrix(1.3333333,0,0,-1.3333333,79.532533,160.85813)" />
    <path
       id="path14"
       d="M 0,0 H 95 V -50"
       style="fill:#ffffff;fill-opacity:1;fill-rule:nonzero;stroke:none"
       transform="matrix(1.3333333,0,0,-1.3333333,79.532533,160.85813)" />
  </g>
</svg>
